H3/img/dessert.svg

<svg viewBox="0 0 34.063 52.999" xmlns="http://www.w3.org/2000/svg"><path d="m33.717 22.157a1.5 1.5 0 0 0 -1.154-.542h-1.9c0-.1.022-.206.022-.31a7.989 7.989 0 0 0 -5.668-7.638c-.165-4.925-2.717-12.7-11.832-13.661a1.523 1.523 0 0 0 -1.5.815 1.5 1.5 0 0 0 .229 1.687c1.387 1.524 1.547 1.948 1.428 3.779-.067 1.028-.6 1.636-1.6 2.71-.262.279-.529.564-.8.876a7.981 7.981 0 0 0 -1.754 3.686 8.027 8.027 0 0 0 -6.077 7.746c0 .1.018.206.022.31h-1.633a1.5 1.5 0 0 0 -1.477 1.763l5.07 28.384a1.5 1.5 0 0 0 1.476 1.238h20.658a1.5 1.5 0 0 0 1.473-1.224l5.336-28.384a1.5 1.5 0 0 0 -.319-1.235zm-6.032-.852c0 .1-.016.206-.022.31h-7.239a14.959 14.959 0 0 0 4.367-4.815 4.969 4.969 0 0 1 2.894 4.505zm-13.752-10.257a7.1 7.1 0 0 0 2.407-4.567 8.821 8.821 0 0 0 -.147-2.624 9.179 9.179 0 0 1 4.684 4.959 7.97 7.97 0 0 1 -1.1 2.117 6.6 6.6 0 0 1 -3.906 2.3 15.626 15.626 0 0 1 -3.561.255 4.862 4.862 0 0 1 .917-1.669c.233-.268.473-.519.706-.771zm-7.817 10.257a4.988 4.988 0 0 1 4.249-4.9 1.522 1.522 0 0 0 .273.039c.748.03 1.506.06 2.271.06a17 17 0 0 0 3.6-.333 9.67 9.67 0 0 0 5.429-3.148 13.554 13.554 0 0 1 .075 1.771 1.506 1.506 0 0 0 .118.66c-1.216 2.572-6.33 6.33-9.2 6.142a1.523 1.523 0 0 0 -.339.021h-6.454c-.006-.106-.022-.208-.022-.312zm19.866 28.695h-18.157l-4.533-25.385h27.462z" fill="#1a9ed4"/></svg>

<svg xmlns="http://www.w3.org/2000/svg" viewBox="0 0 34.063 52.999"><defs><style>.a{fill:#1a9ed4;}</style></defs><path class="a" d="M33.717,22.157a1.5,1.5,0,0,0-1.154-.542h-1.9c0-.1.022-.206.022-.31a7.989,7.989,0,0,0-5.668-7.638C24.852,8.742,22.3.967,13.185.006a1.523,1.523,0,0,0-1.5.815,1.5,1.5,0,0,0,.229,1.687c1.387,1.524,1.547,1.948,1.428,3.779-.067,1.028-.6,1.636-1.6,2.71-.262.279-.529.564-.8.876a7.981,7.981,0,0,0-1.754,3.686,8.027,8.027,0,0,0-6.077,7.746c0,.1.018.206.022.31H1.5A1.5,1.5,0,0,0,.023,23.378l5.07,28.384A1.5,1.5,0,0,0,6.569,53H27.227A1.5,1.5,0,0,0,28.7,51.776l5.336-28.384A1.5,1.5,0,0,0,33.717,22.157Zm-6.032-.852c0,.1-.016.206-.022.31H20.424A14.959,14.959,0,0,0,24.791,16.8,4.969,4.969,0,0,1,27.685,21.305ZM13.933,11.048A7.1,7.1,0,0,0,16.34,6.481a8.821,8.821,0,0,0-.147-2.624,9.179,9.179,0,0,1,4.684,4.959,7.97,7.97,0,0,1-1.1,2.117,6.6,6.6,0,0,1-3.906,2.3,15.626,15.626,0,0,1-3.561.255,4.862,4.862,0,0,1,.917-1.669C13.46,11.551,13.7,11.3,13.933,11.048ZM6.116,21.305a4.988,4.988,0,0,1,4.249-4.9,1.522,1.522,0,0,0,.273.039c.748.03,1.506.06,2.271.06a17,17,0,0,0,3.6-.333,9.67,9.67,0,0,0,5.429-3.148,13.554,13.554,0,0,1,.075,1.771,1.506,1.506,0,0,0,.118.66c-1.216,2.572-6.33,6.33-9.2,6.142a1.523,1.523,0,0,0-.339.021H6.138C6.132,21.511,6.116,21.409,6.116,21.305ZM25.982,50H7.825L3.292,24.615H30.754Z"/></svg>
